!!!OTL: Die Ochsentreiber Kommen.
!!!ARE: Europa, Mitteleuropa, Deutschland
!!!SCT: A0465
!!!TXL: @@NDS
!!!YEM: Copyright 1995, estate of Helmut Schaffrath.
**kern	**text
*M4/4	*
*met(c|)	*
*clefC4	*
*k[b-]	*
*g:dor	*
=1	=1
!LO:TX:a:t=dor.	!
2ryy	.
{2G	Es
=2	=2
4G	get
4A/	gen
4B-	di-
4c	-ſem
=3	=3
2d	Sum-
2A}	-mer,
=4||	=4||
{2d	O-
4c	-ho!
4A	laß
=5	=5
4B-	ein-
4B-	-her
2A	gan!
=6	=6
2r	.
4r}	.
{4G	Die
=7	=7
4A/	och-
4A/	-ſen-
4G	-trei-
4E	-ber
=8	=8
4G	kum-
4A/	-men,
4D	da
4A/	da
=9	=9
2D	da!
4r}	.
{4F	Die
=10	=10
4G	och-
4G	-ſen-
4G	-trei-
4E	-ber
=11	=11
*lig	*
4.F	kum-
8G	.
*Xlig	*
2A/	-men,
=12	=12
4D	da
4A/	da
2D	da!
=13	=13
2r	.
4r}	.
{4D	die
=14	=14
4F	och-
4F	-ſen-
4G	-trei-
4G	-ber
=15	=15
2A/	kum-
2G}	-men.
=16	=16
{2d	O-
4c	-ho,
4A	laß
=17	=17
4B-	ein-
4A	-her
2G}	gan!
=18	=18
{8A	Di-
8B-	-ri
8c	di-
8d	-ri
4B-	dein,
4G	laß
=19	=19
4A/	ein-
4A/	-her
2G}	gan!
=20	=20
{8A	Di-
8B-	-ri
8c	di-
8d	-ri
4B-	dein,
4G	laß
=21	=21
4A/	ein-
4A/	-her
2G}	gan!
==	==
!!!GTL: Scherz-, Spott- und Schandlieder
!!!AGN: Romanze, Ballade, Lied
!! Ott 1534 No. 4 und Ott III 1544 No. 44.
!!!ONB: ESAC (Essen Associative Code) Database: ALTDEU
!!!AMT: simple quadruple
!!!AIN: vox
!!!EED: Helmut Schaffrath
!!!EEV: 1.0
!!!AMD: Dorian
!!!URL-scan: https://rosdok.uni-rostock.de/mcrviewer/recordIdentifier/rosdok_ppn738218359/iview2/phys_0653.iview2?x=-495.6391625615763&y=2099.6157635310665&scale=0.4629418472063854&rotation=0&layout=singlePageLayout&logicalDiv=log_0018
!!!ENC: Anna Maria Matuszewska
!!!EEV: 2024/18/03
*-	*-
